assets/Lollipop/Flat/lollipop_flat.svg

<svg width="32" height="32" viewBox="0 0 32 32" fill="none" xmlns="http://www.w3.org/2000/svg">
<path d="M15.236 15.7898C15.9044 15.0916 17.0121 15.0676 17.7103 15.736L29.4603 26.986C30.1584 27.6544 30.1824 28.7621 29.514 29.4603C28.8456 30.1584 27.7379 30.1824 27.0398 29.514L15.2898 18.264C14.5916 17.5956 14.5676 16.4879 15.236 15.7898Z" fill="#F3C07B"/>
<path d="M3.38559 6.91832C4.28822 5.39149 5.58521 4.12544 7.13636 3.26038C13.3511 6.72017 12 12 12 12C9.95937 8.79099 8.01466 7.26385 3.38559 6.91832Z" fill="#5092FF"/>
<path d="M2.00043 11.9068C2.01725 10.0646 2.53218 8.34146 3.41704 6.86548C10.2965 6.96669 12 12 12 12C8.66694 10.2518 6.29 9.90635 2.00043 11.9068Z" fill="#00D26A"/>
<path d="M3.29277 16.9213C2.4698 15.4683 2 13.789 2 12C2 11.9479 2.0004 11.8959 2.00119 11.844C8.00872 8.49337 12 12 12 12C8.21727 12.0949 5.9829 13.1457 3.29277 16.9213Z" fill="#FCD53F"/>
<path d="M6.92097 20.6159C5.39375 19.7137 4.12726 18.417 3.26172 16.866C6.78909 10.9586 12 12 12 12C8.77921 13.9043 7.41959 16.0271 6.92097 20.6159Z" fill="#FF9F2E"/>
<path d="M6.86548 20.583C6.96669 13.7035 12 12 12 12C10.173 15.2975 9.97217 17.7746 11.9074 21.9996C10.065 21.9829 8.34163 21.4679 6.86548 20.583Z" fill="#F837A2"/>
<path d="M11.844 21.9988C8.49337 15.9913 12 12 12 12C12.1732 15.8368 13.1795 18.105 16.9204 20.7077C15.4676 21.5304 13.7887 22 12 22C11.9479 22 11.8959 21.9996 11.844 21.9988Z" fill="#C790F1"/>
<path d="M16.8661 20.7383C10.9586 17.2109 12 12 12 12C14.0949 15.3202 15.9729 16.7474 20.6143 17.0819C19.7121 18.6078 18.4161 19.8733 16.8661 20.7383Z" fill="#5092FF"/>
<path d="M20.583 17.1345C13.7035 17.0333 12 12 12 12C15.3417 13.8027 17.8524 14.0929 21.9996 12.0944C21.9825 13.9361 21.4676 15.6589 20.583 17.1345Z" fill="#00D26A"/>
<path d="M21.9988 12.156C21.9996 12.1041 22 12.0521 22 12C22 10.2115 21.5305 8.53271 20.708 7.08008C18.0379 10.9644 15.7923 11.8814 12 12C12 12 15.9913 15.5066 21.9988 12.156Z" fill="#FCD53F"/>
<path d="M17.0816 3.3855C18.6076 4.28766 19.8732 5.58378 20.7383 7.13389C17.2109 13.0414 12 12 12 12C15.1071 10.0716 16.7119 8.22757 17.0816 3.3855Z" fill="#FF9F2E"/>
<path d="M17.1345 3.41708C15.6593 2.53265 13.9371 2.0178 12.096 2.00049C14.2371 6.27017 13.7353 8.83597 12 12C12 12 17.0333 10.2965 17.1345 3.41708Z" fill="#F837A2"/>
<path d="M12.156 2.00119C12.1041 2.0004 12.0521 2 12 2C10.213 2 8.53548 2.46873 7.08368 3.28996C11.2284 5.87922 12.1157 8.21834 12 12C12 12 15.5066 8.00872 12.156 2.00119Z" fill="#C790F1"/>
</svg>

<svg xmlns="http://www.w3.org/2000/svg" width="32" height="32" fill="none"><path fill="#F3C07B" d="M15.236 15.79a1.75 1.75 0 0 1 2.474-.054l11.75 11.25a1.75 1.75 0 0 1-2.42 2.528l-11.75-11.25a1.75 1.75 0 0 1-.054-2.474Z"/><path fill="#5092FF" d="M3.386 6.918a10.049 10.049 0 0 1 3.75-3.658C13.351 6.72 12 12 12 12 9.96 8.791 8.015 7.264 3.386 6.918Z"/><path fill="#00D26A" d="M2 11.907a9.951 9.951 0 0 1 1.417-5.042C10.297 6.967 12 12 12 12c-3.333-1.748-5.71-2.094-10-.093Z"/><path fill="#FCD53F" d="M3.293 16.921A9.955 9.955 0 0 1 2 11.844C8.01 8.494 12 12 12 12c-3.783.095-6.017 1.146-8.707 4.921Z"/><path fill="#FF9F2E" d="M6.921 20.616a10.048 10.048 0 0 1-3.66-3.75C6.79 10.959 12 12 12 12c-3.22 1.904-4.58 4.027-5.079 8.616Z"/><path fill="#F837A2" d="M6.865 20.583C6.967 13.703 12 12 12 12c-1.827 3.297-2.028 5.775-.093 10a9.952 9.952 0 0 1-5.042-1.417Z"/><path fill="#C790F1" d="M11.844 21.999C8.494 15.99 12 12 12 12c.173 3.837 1.18 6.105 4.92 8.708a9.954 9.954 0 0 1-5.076 1.29Z"/><path fill="#5092FF" d="M16.866 20.738C10.96 17.211 12 12 12 12c2.095 3.32 3.973 4.747 8.614 5.082a10.05 10.05 0 0 1-3.748 3.656Z"/><path fill="#00D26A" d="M20.583 17.134C13.703 17.034 12 12 12 12c3.342 1.803 5.852 2.093 10 .094a9.952 9.952 0 0 1-1.417 5.04Z"/><path fill="#FCD53F" d="M21.999 12.156 22 12c0-1.789-.47-3.467-1.292-4.92-2.67 3.884-4.916 4.801-8.708 4.92 0 0 3.991 3.507 9.999.156Z"/><path fill="#FF9F2E" d="M17.082 3.385a10.05 10.05 0 0 1 3.656 3.749C17.211 13.04 12 12 12 12c3.107-1.928 4.712-3.772 5.082-8.614Z"/><path fill="#F837A2" d="M17.134 3.417A9.95 9.95 0 0 0 12.096 2c2.141 4.27 1.64 6.836-.096 10 0 0 5.033-1.704 5.134-8.583Z"/><path fill="#C790F1" d="M12.156 2.001 12 2a9.954 9.954 0 0 0-4.916 1.29C11.228 5.88 12.116 8.218 12 12c0 0 3.507-3.991.156-9.999Z"/></svg>
